X:197
T:Double Kisses
R:reel
B:The Athole Collection
M:C|
L:1/8
K:C
e|c2GE c2de|c2GE dDDe|c2GE cdec|fagf ecc:|
e/f/|gcge gcce/f/|gcge adde/f/|gcge afge|fagf ecc e/f/|
gcge gcce/f/|gcge addf/g/|afge fdec|Aagf ecc||

